mimes/128/text-x-copying.svg

<?xml version="1.0" encoding="UTF-8" standalone="no"?>
<svg
   xmlns:dc="http://purl.org/dc/elements/1.1/"
   xmlns:cc="http://creativecommons.org/ns#"
   xmlns:rdf="http://www.w3.org/1999/02/22-rdf-syntax-ns#"
   xmlns:svg="http://www.w3.org/2000/svg"
   xmlns="http://www.w3.org/2000/svg"
   xmlns:xlink="http://www.w3.org/1999/xlink"
   version="1.1"
   width="128"
   height="128"
   id="svg3172">
  <defs
     id="defs3174">
    <linearGradient
       id="linearGradient3600">
      <stop
         id="stop3602"
         style="stop-color:#f4f4f4;stop-opacity:1"
         offset="0" />
      <stop
         id="stop3604"
         style="stop-color:#dbdbdb;stop-opacity:1"
         offset="1" />
    </linearGradient>
    <linearGradient
       id="linearGradient3702-501-757-486">
      <stop
         id="stop3100"
         style="stop-color:#181818;stop-opacity:0"
         offset="0" />
      <stop
         id="stop3102"
         style="stop-color:#181818;stop-opacity:1"
         offset="0.5" />
      <stop
         id="stop3104"
         style="stop-color:#181818;stop-opacity:0"
         offset="1" />
    </linearGradient>
    <linearGradient
       id="linearGradient3688-464-309-255">
      <stop
         id="stop3094"
         style="stop-color:#181818;stop-opacity:1"
         offset="0" />
      <stop
         id="stop3096"
         style="stop-color:#181818;stop-opacity:0"
         offset="1" />
    </linearGradient>
    <linearGradient
       x1="25.132275"
       y1="0.98520643"
       x2="25.132275"
       y2="47.013336"
       id="linearGradient3019-2"
       xlink:href="#linearGradient3600"
       gradientUnits="userSpaceOnUse"
       gradientTransform="matrix(2.6285655,0,0,2.5204893,0.914429,-4.3579715)" />
    <linearGradient
       x1="23.99999"
       y1="5.5641499"
       x2="23.99999"
       y2="42.194839"
       id="linearGradient3016-9"
       xlink:href="#linearGradient3977-3"
       gradientUnits="userSpaceOnUse"
       gradientTransform="matrix(2.4594595,0,0,3.1081081,4.9729852,-14.594554)" />
    <linearGradient
       id="linearGradient3977-3">
      <stop
         id="stop3979-6"
         style="stop-color:#ffffff;stop-opacity:1"
         offset="0" />
      <stop
         id="stop3981-0"
         style="stop-color:#ffffff;stop-opacity:0.23529412"
         offset="0.00648027" />
      <stop
         id="stop3983-6"
         style="stop-color:#ffffff;stop-opacity:0.15686275"
         offset="0.99423188" />
      <stop
         id="stop3985-2"
         style="stop-color:#ffffff;stop-opacity:0.39215687"
         offset="1" />
    </linearGradient>
    <linearGradient
       x1="-51.786404"
       y1="50.786446"
       x2="-51.786404"
       y2="2.9062471"
       id="linearGradient3148"
       xlink:href="#linearGradient3104-6"
       gradientUnits="userSpaceOnUse"
       gradientTransform="matrix(2.1456297,0,0,2.3791292,158.08983,-7.746462)" />
    <linearGradient
       id="linearGradient3104-6">
      <stop
         id="stop3106-3"
         style="stop-color:#000000;stop-opacity:0.31782946"
         offset="0" />
      <stop
         id="stop3108-9"
         style="stop-color:#000000;stop-opacity:0.24031007"
         offset="1" />
    </linearGradient>
    <linearGradient
       gradientUnits="userSpaceOnUse"
       xlink:href="#linearGradient3702-501-757-486"
       id="linearGradient4097"
       y2="39.999443"
       x2="25.058096"
       y1="47.027729"
       x1="25.058096"
       gradientTransform="matrix(2.8421052,0,0,0.71428566,-4.2105336,87.430066)" />
    <radialGradient
       gradientTransform="matrix(5.6949649,0,0,0.99999992,-52.665305,-162.00149)"
       gradientUnits="userSpaceOnUse"
       xlink:href="#linearGradient3688-464-309-255"
       id="radialGradient4095"
       fy="43.5"
       fx="4.9929786"
       r="2.5"
       cy="43.5"
       cx="4.9929786" />
    <radialGradient
       gradientTransform="matrix(5.6949649,0,0,0.99999992,75.334676,75.001496)"
       gradientUnits="userSpaceOnUse"
       xlink:href="#linearGradient3688-464-309-255"
       id="radialGradient4093"
       fy="43.5"
       fx="4.9929786"
       r="2.5"
       cy="43.5"
       cx="4.9929786" />
  </defs>
  <metadata
     id="metadata3177">
    <rdf:RDF>
      <cc:Work
         rdf:about="">
        <dc:format>image/svg+xml</dc:format>
        <dc:type
           rdf:resource="http://purl.org/dc/dcmitype/StillImage" />
        <dc:title />
      </cc:Work>
    </rdf:RDF>
  </metadata>
  <g
     id="g978"
     style="opacity:0.2;stroke-width:1.03923047"
     transform="matrix(0.92592591,0,0,1,4.7407489,0)">
    <rect
       style="fill:url(#radialGradient4093);fill-opacity:1;stroke:none;stroke-width:1.48070288"
       id="rect2801"
       y="116.00149"
       x="103.78947"
       height="4.9999995"
       width="14.210526" />
    <rect
       style="fill:url(#radialGradient4095);fill-opacity:1;stroke:none;stroke-width:1.48070288"
       id="rect3696"
       transform="scale(-1)"
       y="-121.00149"
       x="-24.210518"
       height="4.9999995"
       width="14.210526" />
    <rect
       style="fill:url(#linearGradient4097);fill-opacity:1;stroke:none;stroke-width:1.48070288"
       id="rect3700"
       y="116.00149"
       x="24.210518"
       height="5"
       width="79.578949" />
  </g>
  <path
     d="m 18,2.0004521 c 21.081878,0 91.99989,0.00694 91.99989,0.00694 L 110,118 c 0,0 -61.333339,0 -91.999999,0 0,-38.666664 0,-77.33333 0,-115.999995 z"
     id="path4160"
     style="display:inline;fill:url(#linearGradient3019-2);fill-opacity:1;stroke:none" />
  <path
     d="m 109.5,117.5 h -91 V 2.500002 h 91 z"
     id="rect6741-1"
     style="fill:none;stroke:url(#linearGradient3016-9);stroke-width:1;stroke-linecap:round;stroke-linejoin:round;stroke-miterlimit:4;stroke-dasharray:none;stroke-dashoffset:0;stroke-opacity:1" />
  <path
     d="m 17.500001,1.49999 c 21.311001,0 92.999899,0.008 92.999899,0.008 l 1e-4,116.99202 c 0,0 -61.999997,0 -92.999999,0 0,-39.000096 0,-77.999807 0,-116.999456 z"
     id="path4160-6-1"
     style="display:inline;fill:none;stroke:url(#linearGradient3148);stroke-width:0.99999994;stroke-linecap:butt;stroke-linejoin:round;stroke-miterlimit:4;stroke-dasharray:none;stroke-dashoffset:0;stroke-opacity:1" />
  <path
     style="color:#000000;font-style:normal;font-variant:normal;font-weight:normal;font-stretch:normal;font-size:medium;line-height:normal;font-family:sans-serif;font-variant-ligatures:normal;font-variant-position:normal;font-variant-caps:normal;font-variant-numeric:normal;font-variant-alternates:normal;font-feature-settings:normal;text-indent:0;text-align:start;text-decoration:none;text-decoration-line:none;text-decoration-style:solid;text-decoration-color:#000000;letter-spacing:normal;word-spacing:normal;text-transform:none;writing-mode:lr-tb;direction:ltr;text-orientation:mixed;dominant-baseline:auto;baseline-shift:baseline;text-anchor:start;white-space:normal;shape-padding:0;clip-rule:nonzero;display:inline;overflow:visible;visibility:visible;opacity:1;isolation:auto;mix-blend-mode:normal;color-interpolation:sRGB;color-interpolation-filters:linearRGB;solid-color:#000000;solid-opacity:1;vector-effect:none;fill:#7e8087;fill-opacity:1;fill-rule:nonzero;stroke:none;stroke-width:1.99999976;stroke-linecap:round;stroke-linejoin:round;stroke-miterlimit:4;stroke-dasharray:none;stroke-dashoffset:0;stroke-opacity:1;color-rendering:auto;image-rendering:auto;shape-rendering:auto;text-rendering:auto;enable-background:accumulate"
     d="m 63.999988,32 c -1.850301,0 -3.405591,1.284214 -3.855469,3 H 43.499988 c 0,0 -0.5,0 -0.5,0.5 v 1 c 0,0.5 0.5,0.5 0.5,0.5 h 16.644531 c 0.365511,1.39402 1.461449,2.489958 2.855469,2.855469 V 87 h -19.5 c 0,0 -0.5,0 -0.5,0.5 v 1 c 0,0.5 0.5,0.5 0.5,0.5 h 41 c 0,0 0.5,0 0.5,-0.5 v -1 c 0,-0.5 -0.5,-0.5 -0.5,-0.5 h -19.5 V 39.855469 C 66.394008,39.489958 67.489946,38.39402 67.855457,37 h 16.644531 c 0,0 0.5,0 0.5,-0.5 v -1 c 0,-0.5 -0.5,-0.5 -0.5,-0.5 H 67.855457 c -0.449878,-1.715786 -2.005168,-3 -3.855469,-3 z m 0,2 c 1.116414,0 2,0.883586 2,2 0,1.116414 -0.883586,2 -2,2 -1.116414,0 -2,-0.883586 -2,-2 0,-1.116414 0.883586,-2 2,-2 z m -20.007812,7 a 0.50004997,0.50004997 0 0 0 -0.458985,0.314453 L 32.058582,70 h -0.05859 v 0.146484 l -0.0078,0.01758 0.0059,0.002 -0.0059,1.015625 c 1.798822,5.283531 6.61129,8.814099 12.0078,8.818311 5.393467,-0.0079 10.194368,-3.537754 11.992188,-8.818359 l 0.0059,-1.013672 0.0098,-0.0039 -0.0079,-0.02149 V 70 h -0.05859 L 44.460926,41.314453 A 0.50004997,0.50004997 0 0 0 43.992176,41 Z m 41,0 a 0.50004997,0.50004997 0 0 0 -0.458985,0.314453 L 73.058582,70 h -0.05859 v 0.146484 l -0.0078,0.01758 0.0059,0.002 -0.0059,1.015625 C 74.79101,76.46522 79.603478,79.995788 84.999988,80 90.393455,79.9921 95.194357,76.462246 96.992176,71.181641 l 0.0059,-1.013672 0.0098,-0.0039 -0.0079,-0.02149 V 70 h -0.05859 L 85.460926,41.314453 A 0.50004997,0.50004997 0 0 0 84.992176,41 Z M 43.998035,42.845703 54.865222,70 H 33.134754 Z m 41,0 L 95.865222,70 H 74.134754 Z"
     id="path4498" />
</svg>

<?xml version="1.0" encoding="UTF-8" standalone="no"?>
<svg
   xmlns:dc="http://purl.org/dc/elements/1.1/"
   xmlns:cc="http://creativecommons.org/ns#"
   xmlns:rdf="http://www.w3.org/1999/02/22-rdf-syntax-ns#"
   xmlns:svg="http://www.w3.org/2000/svg"
   xmlns="http://www.w3.org/2000/svg"
   xmlns:xlink="http://www.w3.org/1999/xlink"
   xmlns:sodipodi="http://sodipodi.sourceforge.net/DTD/sodipodi-0.dtd"
   xmlns:inkscape="http://www.inkscape.org/namespaces/inkscape"
   id="svg3172"
   height="128"
   width="128"
   version="1.1"
   sodipodi:docname="text-x-copying.svg"
   inkscape:version="0.91 r13725">
  <sodipodi:namedview
     pagecolor="#ffffff"
     bordercolor="#666666"
     borderopacity="1"
     objecttolerance="10"
     gridtolerance="10"
     guidetolerance="10"
     inkscape:pageopacity="0"
     inkscape:pageshadow="2"
     inkscape:window-width="3200"
     inkscape:window-height="1674"
     id="namedview41"
     showgrid="false"
     inkscape:zoom="10.90625"
     inkscape:cx="64"
     inkscape:cy="64"
     inkscape:window-x="0"
     inkscape:window-y="60"
     inkscape:window-maximized="1"
     inkscape:current-layer="svg3172"
     showborder="false">
    <inkscape:grid
       type="xygrid"
       id="grid4542" />
  </sodipodi:namedview>
  <defs
     id="defs3174">
    <linearGradient
       id="linearGradient3977">
      <stop
         offset="0"
         style="stop-color:#ffffff;stop-opacity:1"
         id="stop3979" />
      <stop
         offset="0"
         style="stop-color:#ffffff;stop-opacity:0.23529412"
         id="stop3981" />
      <stop
         offset="1"
         style="stop-color:#ffffff;stop-opacity:0.15686275"
         id="stop3983" />
      <stop
         offset="1"
         style="stop-color:#ffffff;stop-opacity:0.39215687"
         id="stop3985" />
    </linearGradient>
    <linearGradient
       id="linearGradient3600">
      <stop
         offset="0"
         style="stop-color:#f4f4f4;stop-opacity:1"
         id="stop3602" />
      <stop
         offset="1"
         style="stop-color:#dbdbdb;stop-opacity:1"
         id="stop3604" />
    </linearGradient>
    <linearGradient
       id="linearGradient3702-501-757-486">
      <stop
         offset="0"
         style="stop-color:#181818;stop-opacity:0"
         id="stop3100" />
      <stop
         offset="0.5"
         style="stop-color:#181818;stop-opacity:1"
         id="stop3102" />
      <stop
         offset="1"
         style="stop-color:#181818;stop-opacity:0"
         id="stop3104" />
    </linearGradient>
    <linearGradient
       id="linearGradient3688-464-309-255">
      <stop
         offset="0"
         style="stop-color:#181818;stop-opacity:1"
         id="stop3094" />
      <stop
         offset="1"
         style="stop-color:#181818;stop-opacity:0"
         id="stop3096" />
    </linearGradient>
    <linearGradient
       id="linearGradient3688-166-749-737">
      <stop
         offset="0"
         style="stop-color:#181818;stop-opacity:1"
         id="stop3088" />
      <stop
         offset="1"
         style="stop-color:#181818;stop-opacity:0"
         id="stop3090" />
    </linearGradient>
    <linearGradient
       gradientTransform="matrix(2.4594595,0,0,3.1081081,4.9729852,-14.594559)"
       gradientUnits="userSpaceOnUse"
       xlink:href="#linearGradient3977"
       id="linearGradient3016"
       y2="42.339119"
       x2="23.99999"
       y1="5.6608582"
       x1="23.99999" />
    <linearGradient
       gradientTransform="matrix(2.6571409,0,0,2.5422194,0.228619,-4.91283)"
       gradientUnits="userSpaceOnUse"
       xlink:href="#linearGradient3600"
       id="linearGradient3019"
       y2="47.013336"
       x2="25.132275"
       y1="0.98520643"
       x1="25.132275" />
    <linearGradient
       gradientTransform="matrix(3.1428572,0,0,1.2857143,-11.428573,61.571428)"
       gradientUnits="userSpaceOnUse"
       xlink:href="#linearGradient3702-501-757-486"
       id="linearGradient3024"
       y2="39.999443"
       x2="25.058096"
       y1="47.027729"
       x1="25.058096" />
    <radialGradient
       gradientTransform="matrix(2.4045407,0,0,1.7999999,-32.014243,-195.8)"
       gradientUnits="userSpaceOnUse"
       xlink:href="#linearGradient3688-464-309-255"
       id="radialGradient3027"
       fy="43.5"
       fx="4.9929786"
       r="2.5"
       cy="43.5"
       cx="4.9929786" />
    <radialGradient
       gradientTransform="matrix(2.4045407,0,0,1.7999999,95.985757,39.200001)"
       gradientUnits="userSpaceOnUse"
       xlink:href="#linearGradient3688-166-749-737"
       id="radialGradient3030"
       fy="43.5"
       fx="4.9929786"
       r="2.5"
       cy="43.5"
       cx="4.9929786" />
  </defs>
  <metadata
     id="metadata3177">
    <rdf:RDF>
      <cc:Work
         rdf:about="">
        <dc:format>image/svg+xml</dc:format>
        <dc:type
           rdf:resource="http://purl.org/dc/dcmitype/StillImage" />
        <dc:title />
      </cc:Work>
    </rdf:RDF>
  </metadata>
  <rect
     style="opacity:0.4;fill:url(#radialGradient3030);fill-opacity:1;stroke:none"
     id="rect2801"
     y="113"
     x="108"
     height="8.999999"
     width="6" />
  <rect
     style="opacity:0.4;fill:url(#radialGradient3027);fill-opacity:1;stroke:none"
     id="rect3696"
     transform="scale(-1,-1)"
     y="-122"
     x="-20"
     height="8.999999"
     width="6" />
  <rect
     style="opacity:0.4;fill:url(#linearGradient3024);fill-opacity:1;stroke:none"
     id="rect3700"
     y="113"
     x="20"
     height="9"
     width="88" />
  <path
     style="display:inline;fill:url(#linearGradient3019);fill-opacity:1;stroke:none"
     id="path4160"
     d="m 17.499929,1.500412 c 21.311061,0 93.000031,0.007 93.000031,0.007 l 1.1e-4,116.992628 H 17.49993 V 1.499961 Z"
     inkscape:connector-curvature="0"
     sodipodi:nodetypes="cccccc" />
  <path
     style="fill:none;stroke:url(#linearGradient3016);stroke-width:1;stroke-linecap:round;stroke-linejoin:round;stroke-miterlimit:4;stroke-dasharray:none;stroke-dashoffset:0;stroke-opacity:1"
     id="rect6741-1"
     d="m 109.5,117.5 h -91 V 2.499997 h 91 z"
     inkscape:connector-curvature="0"
     sodipodi:nodetypes="ccccc" />
  <path
     style="display:inline;opacity:0.3;fill:none;stroke:#000000;stroke-width:0.99992186;stroke-linecap:butt;stroke-linejoin:round;stroke-miterlimit:4;stroke-dasharray:none;stroke-dashoffset:0;stroke-opacity:1"
     id="path4160-4"
     d="m 17.499929,1.5004119 c 21.311061,0 93.000031,0.007 93.000031,0.007 l 1.1e-4,116.9926281 H 17.49993 V 1.4999609 Z"
     inkscape:connector-curvature="0"
     sodipodi:nodetypes="cccccc" />
  <path
     style="color:#000000;font-style:normal;font-variant:normal;font-weight:normal;font-stretch:normal;font-size:medium;line-height:normal;font-family:sans-serif;font-variant-ligatures:normal;font-variant-position:normal;font-variant-caps:normal;font-variant-numeric:normal;font-variant-alternates:normal;font-feature-settings:normal;text-indent:0;text-align:start;text-decoration:none;text-decoration-line:none;text-decoration-style:solid;text-decoration-color:#000000;letter-spacing:normal;word-spacing:normal;text-transform:none;writing-mode:lr-tb;direction:ltr;text-orientation:mixed;dominant-baseline:auto;baseline-shift:baseline;text-anchor:start;white-space:normal;shape-padding:0;clip-rule:nonzero;display:inline;overflow:visible;visibility:visible;opacity:1;isolation:auto;mix-blend-mode:normal;color-interpolation:sRGB;color-interpolation-filters:linearRGB;solid-color:#000000;solid-opacity:1;vector-effect:none;fill:#7e8087;fill-opacity:1;fill-rule:nonzero;stroke:none;stroke-width:1.99999976;stroke-linecap:round;stroke-linejoin:round;stroke-miterlimit:4;stroke-dasharray:none;stroke-dashoffset:0;stroke-opacity:1;color-rendering:auto;image-rendering:auto;shape-rendering:auto;text-rendering:auto;enable-background:accumulate"
     d="M 64 32 C 62.149699 32 60.594409 33.284214 60.144531 35 L 43.5 35 C 43.5 35 43 35 43 35.5 L 43 36.5 C 43 37 43.5 37 43.5 37 L 60.144531 37 C 60.510042 38.39402 61.60598 39.489958 63 39.855469 L 63 87 L 43.5 87 C 43.5 87 43 87 43 87.5 L 43 88.5 C 43 89 43.5 89 43.5 89 L 84.5 89 C 84.5 89 85 89 85 88.5 L 85 87.5 C 85 87 84.5 87 84.5 87 L 65 87 L 65 39.855469 C 66.39402 39.489958 67.489958 38.39402 67.855469 37 L 84.5 37 C 84.5 37 85 37 85 36.5 L 85 35.5 C 85 35 84.5 35 84.5 35 L 67.855469 35 C 67.405591 33.284214 65.850301 32 64 32 z M 64 34 C 65.116414 34 66 34.883586 66 36 C 66 37.116414 65.116414 38 64 38 C 62.883586 38 62 37.116414 62 36 C 62 34.883586 62.883586 34 64 34 z M 43.992188 41 A 0.50004997 0.50004997 0 0 0 43.533203 41.314453 L 32.058594 70 L 32 70 L 32 70.146484 L 31.992188 70.164062 L 31.998047 70.166016 L 31.992188 71.181641 C 33.791022 76.46522 38.60349 79.995788 44 80 C 49.393467 79.9921 54.194368 76.462246 55.992188 71.181641 L 55.998047 70.167969 L 56.007812 70.164062 L 56 70.142578 L 56 70 L 55.941406 70 L 44.460938 41.314453 A 0.50004997 0.50004997 0 0 0 43.992188 41 z M 84.992188 41 A 0.50004997 0.50004997 0 0 0 84.533203 41.314453 L 73.058594 70 L 73 70 L 73 70.146484 L 72.992188 70.164062 L 72.998047 70.166016 L 72.992188 71.181641 C 74.791022 76.46522 79.60349 79.995788 85 80 C 90.393467 79.9921 95.194369 76.462246 96.992188 71.181641 L 96.998047 70.167969 L 97.007812 70.164062 L 97 70.142578 L 97 70 L 96.941406 70 L 85.460938 41.314453 A 0.50004997 0.50004997 0 0 0 84.992188 41 z M 43.998047 42.845703 L 54.865234 70 L 33.134766 70 L 43.998047 42.845703 z M 84.998047 42.845703 L 95.865234 70 L 74.134766 70 L 84.998047 42.845703 z "
     id="path4498" />
</svg>
